X: 15
T: The Foxhunter's
R: slip jig
M: 9/8
L: 1/8
K: Dmaj
|:B3 BcA B2G|BAG BdB ABc |BAG BdB c2e|dBG GDG G2d|
Bc/B/B BcA B2G|BAG BdB ABc|BAG BdB c2e|dBG GAG G3||
|g3 edc Bcd|ecA ABA ABd|g3 edc Bcd|gdB GAG GBd|
g3 edc Bcd |ecA ABA A2B|def gfe def|g3 agf g3||


Tune 482	Setting 482

